!!!COM:	Josquin des Pres
**kern	**kern
*part2	*part1
*staff2	*staff1
*clefF4	*clefGv2
*k[]	*k[]
*M2/1	*M2/1
=1-	=1-
1F	0A
2D	.
[2F	.
=2	=2
2F]	0G
4E	.
4D	.
1E	.
=3	=3
2AA	0A
2c	.
2A	.
[2c	.
=4	=4
2c]	0G
4B	.
4A	.
2B	.
2E	.
=5	=5
2r	0A
2F	.
4D	.
4E	.
4F	.
4D	.
=6	=6
2E	0c
4AA	.
4BB	.
4C	.
4D	.
4E	.
4F	.
=7	=7
4G	0B
4E	.
2.A	.
4G	.
4G	.
4F	.
=8	=8
0A	0A
==	==
*-	*-
